X: 1514
T: Niçin Sevdim Ben Seni
C: İsmail Hakkı Bey
O: Turkey
F: http://compmusic.upf.edu/node/140
N: hicazkar--kocekce--raksaksagi--nicin_sevdim--muallim_ismail_hakki_bey
N: makam= hicazkar
N: form= kocekce
N: usul= raksaksagi = 9/8
M: 9/8
L: 1/16
K: C _1/4B _7/8e _7/8A ^f
Q: 1/4=192
%%MIDI tuningsystem comma53
c2_2/4Bc B2c2 B2=A2 B2A2 G2 | _2/4B2 c2B2 =A2G4A2 A2G2  | \
w:  ARANAĞME  |   | 
=A2_2/4Bc B2A2 G4 A2G2 F2 | 
w:   | 
G4d2 d2d4d2 e2f2  | g2f2 e2d2 c2B2 f2e2 d2 | \
w:   |   | 
d2 ddd2 d2d4d2 d2d2  | 
w:   | 
g4 d2d2 g4 f2e2 d2 | e4c2 B2d4B2 A2G2  | \
w:   |   | 
d4 c2d2 c2d2 e2d2 c2 | 
w:   | 
B4B2 c2B2 A2G6  | B4 A2B2 A2B2 c2B2 A2 | \
w:   |   | 
G12g2 g2g2  | g4 g4 g4 _b2=a2 g2 | 
w:   |   | 
g4c4g4_b2 =a2g2  | g4 z4 g2=a2 _b2a2 g2 | \
w:   |   | 
f4d4e4e2 d2c2  | d4 z4 c2d2 _2/4e2=f2 g2 | 
w:   |   | 
=f2 _2/4e2g4d4_7/8e2 d2c2  | B4 z4 B2c2 d2c2 d2 | \
w:   |   | 
B2 A2G4B4c2 B2A2  | 
w:   | 
G4 z4 g4 _b2=a2 g2 | g4c4c4_b2 =a2g2  | \
w:  *  Ni çin   |  sev dim  ben  se  | 
g4 z4 g4 f4 e2 | g4f4d4e2 d2c2  | 
w:  ni   Sen  de   |  sev miş tin  be  | 
d4 z4 g4 _b2=a2 g2 | g4c4c4_b2 =a2g2  | \
w:  ni   Ni çin   |  sev dim  ben  se  | 
g4 z4 g4 f4 e2 | g4f4d4e2 d2c2  | 
w:  ni   Sen  de   |  sev miş tin  be  | 
d4 z4 g4 g4 =e2 | =f4=e4c4d4c2  | =e4 z4 d2e2 =f2e2 d2 | \
w:  ni   Se ni   |  ben den  a yı  |  ran   Tu *  tuş  | 
c4_2/4B4G4A2 G2F2  | 
w:  sun  her  bir  ye  | 
G4 z4 g4 g4 =e2 | =f4=e4c4d4c2  | =e4 z4 d2e2 =f2e2 d2 | \
w:  ri   Se ni   |  ben den  a yı  |  ran   Tu *  tuş  | 
c4_2/4B4G4A2 G2F2  | 
w:  sun  her  bir  ye  | 
G4 z4 g4 _b2=a2 g2 | g4c4g4_b2 =a2g2  | \
w:  ri   SAZ  |  ARANAĞME  | 
g4 z4 g2=a2 _b2a2 g2 | f4d4e4e2 d2c2  | 
w:   |   | 
d4 z4 c2d2 _2/4e2=f2 g2 | =f2 _2/4e2g4d4_7/8e2 d2c2  | \
w:   |   | 
B4 z4 B2c2 d2c2 d2 | 
w:   | 
B2 A2G4B4c2 B2A2  | G4 z4 g4 _b2=a2 g2 | \
w:   |   | 
g4c4g4_b2 =a2g2  | g4 z4 g2=a2 _b2a2 g2 | 
w:  ARANAĞME  |   | 
f4d4e4e2 d2c2  | d4 z4 c2d2 _2/4e2=f2 g2 | \
w:   |   | 
=f2 _2/4e2g4d4_7/8e2 d2c2  | B4 z4 B2c2 d2c2 d2 | 
w:   |   | 
B2 A2G4B4c2 B2A2  | G4 z4 g4 _b2=a2 g2 | \
w:   |  *  Her  gün   | 
g4c4c4_b2 =a2g2  | g4 z4 g4 f4 e2 | 
w:  hî le  dü zer  |  sin   Be ni   | 
g4f4d4e2 d2c2  | d4 z4 g4 _b2=a2 g2 | \
w:  ga yet  ü zer  |  sin   Her  gün   | 
g4c4c4_b2 =a2g2  | g4 z4 g4 f4 e2 | 
w:  hî le  dü zer  |  sin   Be ni   | 
g4f4d4e2 d2c2  | d4 z4 g4 g4 =e2 | =f4=e4c4d4c2  | \
w:  ga yet  ü zer  |  sin   Nis bet   |  e dip  kar şım  | 
=e4 z4 d2e2 =f2e2 d2 | 
w:  da   Göz *  le  | 
c4_2/4B4G4A2 G2F2  | G4 z4 g4 g4 =e2 | \
w:  ri ni  sü zer  |  sin   Nis bet   | 
=f4=e4c4d4c2  | =e4 z4 d2e2 =f2e2 d2 | 
w:  e dip  kar şım  |  da   Göz *  le  | 
c4_2/4B4G4A2 G2F2  | G4 z4 c4 c2c2 c2 | \
w:  ri ni  sü zer  |  sin   SAZ  | 
c4c2 d2_2/4e4e2 d2c2  | c4 z4 _2/4e4 =f2e2 d2 | 
w:   |   | 
c4d4c4d2 c2d2  | _2/4e4 z4 g4 g2=f2 e2 | \
w:   |   | 
=f4_2/4e4d4c4=a2  | g4 z4 =f2g2 =a2g2 f2 | 
w:   |   | 
_2/4e4g4d2 e2=f2 e2d2  | c4 z4 c4 c2c2 c2 | \
w:   |   | 
c4c2 d2_2/4e4e2 d2c2  | c4 z4 _2/4e4 =f2e2 d2 | 
w:   |   | 
c4d4c4d2 c2d2  | _2/4e4 z4 g4 g2=f2 e2 | \
w:   |   | 
=f4_2/4e4d4c4=a2  | g4 z4 =f2g2 =a2g2 f2 | 
w:   |   | 
_2/4e4g4d2 e2=f2 e2d2  | c4 z4 z8-z2 | |


